src/img/sprites-svg/logo.svg

<?xml version="1.0" encoding="UTF-8"?>
<svg width="1383px" height="325px" viewBox="0 0 1383 325" version="1.1" xmlns="http://www.w3.org/2000/svg" xmlns:xlink="http://www.w3.org/1999/xlink">
    <!-- Generator: Sketch 49.1 (51147) - http://www.bohemiancoding.com/sketch -->
    <title>Artboard</title>
    <desc>Created with Sketch.</desc>
    <defs></defs>
    <g id="Artboard" stroke="none" stroke-width="1" fill="none" fill-rule="evenodd">
        <g id="Sign" fill-rule="nonzero">
            <path d="M12.2,90.2 C5.07899152,76.1793102 7.12496116,59.246963 17.380561,47.3259238 C27.6361609,35.4048847 44.0730117,30.8529278 59,35.8 L167.2,71.8 C191.430272,79.8667743 207.756515,102.562269 207.7,128.1 C207.860327,142.10101 202.410488,155.583815 192.566151,165.540874 C182.721814,175.497933 169.301928,181.100918 155.3,181.1 C140.868911,181.044499 129.110055,192.669224 129,207.1 C128.891143,221.414071 117.314071,232.991143 103,233.1 C92.4508131,233.129735 82.7356527,227.369759 77.7,218.1 L12.2,90.2 Z" id="Yellow" fill="#FFB300"></path>
            <path d="M83,85 L110,53 L143.2,13.7 C151.192173,4.28089394 163.191845,-0.769683447 175.514159,0.0991977022 C187.836474,0.968078851 199.008672,7.65257019 205.6,18.1 L275.6,129.1 C282.143048,139.275195 283.565728,151.919976 279.447291,163.294709 C275.328853,174.669441 266.140632,183.472344 254.6,187.1 L202.6,204.1 L83,85 Z" id="Magenta" fill="#FA485D"></path>
            <path d="M38.4,141.2 L8.4,179 C0.841383205,188.598655 -1.75471563,201.196836 1.39327308,213.001794 C4.5412618,224.806752 13.0656039,234.439482 24.4,239 L146.4,287 C157.909654,291.560268 170.904545,290.354245 181.378396,283.753742 C191.852247,277.15324 198.547488,265.950765 199.4,253.6 L202.7,202.9 L38.4,141.2 Z" id="Blue" fill="#5A83F5"></path>
            <path d="M207.7,128 C207.627402,102.572707 191.325541,80.0318612 167.2,72 L110.2,53 L83,85" id="Red" fill="#C43100"></path>
            <path d="M110.6,231.7 L202.6,202.9 L207.6,130.9 C207.9,123.9 164.2,129.9 142.2,152.9 C114,181.9 106.2,231.9 110.6,229.9 L110.6,231.7 Z" id="Purple" fill="#962493"></path>
            <path d="M82.6,85.6 L38.4,141.2 L77.4,217.2 C82.3072188,226.765672 92.1490602,232.786564 102.9,232.8 C116.9,232.8 86.9,79.4 81.9,85.6 L82.6,85.6 Z" id="Green" fill="#147A0A"></path>
            <path d="M76.7,206.8 C76.6549032,217.727724 83.4477305,227.517387 93.7,231.3 C96.6640017,232.299751 99.7719388,232.80648 102.9,232.8 C117.291695,232.690137 128.900419,220.992114 128.9,206.6 C128.899581,192.207886 140.508305,180.509863 154.9,180.4 C181.361786,180.396116 203.668026,160.663672 206.9,134.4 L206.9,131.7 C207.807398,117.326759 202.75903,103.213646 192.941147,92.6769204 C183.123264,82.1401942 169.401444,76.1088083 155,76 L103,75.5 C94.9981251,75.5279107 87.4477056,79.2110422 82.5,85.5 L81.5,86.7 C78.399506,91.0893978 76.7237765,96.3260526 76.7,101.7 L76.7,206.8 Z" id="Deep_Blue" fill="#250078"></path>
        </g>
        <path d="M1373,203.2 C1363.13333,207.866667 1354.86667,210.2 1348.2,210.2 C1342.2,210.2 1337.76667,208.533333 1334.9,205.2 C1332.03333,201.866667 1330.36667,196.133333 1329.9,188 L1329.9,108.3 L1377.9,108.3 L1377.9,82 L1329.9,82 L1329.9,36.4 L1294.9,36.4 L1294.9,82 L1270.9,82 L1270.9,108.6 L1294.1,108.6 L1294.1,194.6 C1294.1,210.6 1298.43333,222.6 1307.1,230.6 C1315.76667,238.6 1327.1,242.6 1341.1,242.6 C1354.43333,242.6 1368.1,238.6 1382.1,230.6 L1373,203.2 Z M1224,85 C1212,77.9333333 1198.26667,74.4 1182.8,74.4 C1169.93333,74.4 1158.6,76.9333333 1148.8,82 C1138.88012,87.0543026 1130.56817,94.7774905 1124.8,104.3 L1124.8,75.7 L1089.2,75.7 L1089.2,301.5 L1124.9,301.5 L1124.9,212.5 C1130.67016,221.995806 1138.98404,229.686138 1148.9,234.7 C1158.23333,239.766667 1169.56667,242.3 1182.9,242.3 C1198.23333,242.3 1211.9,238.833333 1223.9,231.9 C1235.61266,224.722511 1244.99167,214.301384 1250.9,201.9 C1256.9,189.233333 1259.9,174.566667 1259.9,157.9 C1259.9,141.233333 1256.56667,126.233333 1249.9,112.9 C1243.76739,100.913779 1234.4182,90.8720539 1222.9,83.9 L1224,85 Z M1219.3,185.8 C1215.26942,193.79655 1209.02016,200.462428 1201.3,205 C1193.41631,209.596962 1184.42483,211.948579 1175.3,211.8 C1160.63333,211.8 1148.56667,206.8 1139.1,196.8 C1129.63333,186.8 1124.96667,173.8 1125.1,157.8 C1125.14505,148.166484 1127.54837,138.690544 1132.1,130.2 C1136.17093,122.283687 1142.41513,115.692579 1150.1,111.2 C1157.96353,106.533091 1166.95629,104.111962 1176.1,104.2 C1185.2483,104.075576 1194.25076,106.499315 1202.1,111.2 C1209.76492,115.806314 1215.99726,122.454148 1220.1,130.4 C1224.65835,138.815869 1227.06316,148.229002 1227.1,157.8 C1227.36945,167.478993 1225.31182,177.081279 1221.1,185.8 L1219.3,185.8 Z M989.3,74.4 C957.566667,74.4 936.633333,87.6666667 926.5,114.2 C922.5,101.533333 915.6,91.7333333 905.8,84.8 C896,77.8666667 883.666667,74.4 868.8,74.4 C840.133333,74.4 820.133333,85.5 808.8,107.7 L808.8,75.7 L773.4,75.7 L773.4,241 L809,241 L809,159.3 C809,144.633333 813.1,132.466667 821.3,122.8 C829.5,113.133333 840.7,108.133333 854.9,107.8 C866.9,107.8 876.233333,111.333333 882.9,118.4 C889.566667,125.466667 892.9,135.333333 892.9,148 L892.9,241 L928.9,241 L928.9,160 C928.9,145.333333 932.9,133.166667 940.9,123.5 C948.9,113.833333 959.9,108.833333 973.9,108.5 C985.9,108.5 995.233333,112.033333 1001.9,119.1 C1008.56667,126.166667 1012.23333,135.833333 1012.9,148.1 L1012.9,241.1 L1048.9,241.1 L1048.9,138 C1048.9,118.4 1043.4,102.9 1032.4,91.5 C1021.4,80.1 1006.56667,74.4333333 987.9,74.5 L989.3,74.4 Z M696.6,157.2 C696.6,172.066667 692.5,184.333333 684.3,194 C676.1,203.666667 665.1,208.6 651.3,208.8 C639.3,208.8 629.833333,205.2 622.9,198 C615.966667,190.8 612.3,181.033333 611.9,168.7 L611.9,75.7 L576.9,75.7 L576.9,178.7 C576.9,198.366667 582.233333,213.9 592.9,225.3 C603.566667,236.7 618.233333,242.366667 636.9,242.3 C665.566667,242.3 685.233333,231.133333 695.9,208.8 L695.9,241.2 L731.9,241.2 L731.9,75.7 L695.9,75.7 L695.9,157 L696.6,157.2 Z M513.4,85 C501.533333,77.9333333 487.8,74.4 472.2,74.4 C459.333333,74.4 448,76.9333333 438.2,82 C428.353688,87.0845413 420.113867,94.8050458 414.4,104.3 L414.4,75.7 L378.6,75.7 L378.6,301.5 L414.4,301.5 L414.4,212.5 C420.170165,221.995806 428.484037,229.686138 438.4,234.7 C448.4,239.766667 459.9,242.3 472.9,242.3 C488.233333,242.3 501.9,238.833333 513.9,231.9 C525.612656,224.722511 534.991671,214.301384 540.9,201.9 C547.566667,189.233333 550.9,174.566667 550.9,157.9 C550.9,141.233333 547.566667,126.566667 540.9,113.9 C534.495788,101.780779 524.787123,91.7253758 512.9,84.9 L513.4,85 Z M508.8,185.8 C504.769419,193.79655 498.520158,200.462428 490.8,205 C482.916309,209.596962 473.924832,211.948579 464.8,211.8 C450.133333,211.8 438.033333,206.8 428.5,196.8 C418.966667,186.8 414.3,173.8 414.5,157.8 C414.328958,148.225052 416.491199,138.752375 420.8,130.2 C424.816788,122.310541 430.988987,115.722238 438.6,111.2 C446.521712,106.497605 455.588569,104.075162 464.8,104.2 C473.948304,104.075576 482.950764,106.499315 490.8,111.2 C498.464915,115.806314 504.697259,122.454148 508.8,130.4 C513.150003,138.869568 515.348014,148.279801 515.2,157.8 C515.345195,167.511757 513.150004,177.115717 508.8,185.8 Z" id="Text" fill="#FFFFFF" fill-rule="nonzero"></path>
        <text id="BETA" font-family="SourceSansPro-Semibold, Source Sans Pro" font-size="74" font-weight="500" fill="#FFFFFF">
            <tspan x="1175" y="325">BETA</tspan>
        </text>
    </g>
</svg>

<svg xmlns="http://www.w3.org/2000/svg" id="Layer_1" data-name="Layer 1" viewBox="0 0 1382.1 301.5">
    <defs>
        <style>
            .cls-1{fill:#ffb300;}.cls-2{fill:#fa485d;}.cls-3{fill:#5a83f5;}.cls-4{fill:#c43100;}.cls-5{fill:#962493;}.cls-6{fill:#147a0a;}.cls-7{fill:#250078;}.cls-8{fill:#fff;}
        </style>
    </defs>
    <g id="Sign">
        <path style="fill:#ffb300;" id="Yellow" d="M12.2 90.2A38.8 38.8 0 0 1 59 35.8l108.2 36a59.2 59.2 0 0 1 40.5 56.3 52.4 52.4 0 0 1-52.4 53 26.2 26.2 0 0 0-26.3 26 26.2 26.2 0 0 1-26 26 28.7 28.7 0 0 1-25.3-15z" class="cls-1"/>
        <path id="Magenta" d="M83 85l27-32 33.2-39.3a38.8 38.8 0 0 1 62.4 4.4l70 111a38.8 38.8 0 0 1-21 58l-52 17z" class="cls-2"/>
        <path id="Blue" d="M38.4 141.2L8.4 179a38.8 38.8 0 0 0 16 60l122 48a38.8 38.8 0 0 0 53-33.4l3.3-50.7z" class="cls-3"/>
        <path id="Red" d="M207.7 128a59.2 59.2 0 0 0-40.5-56l-57-19L83 85" class="cls-4"/>
        <path id="Purple" d="M110.6 231.7l92-28.8 5-72c.3-7-43.4-1-65.4 22-28.2 29-36 79-31.6 77z" class="cls-5"/>
        <path id="Green" d="M82.6 85.6l-44.2 55.6 39 76a28.7 28.7 0 0 0 25.5 15.6c14 0-16-153.4-21-147.2z" class="cls-6"/>
        <path id="Deep_Blue" d="M76.7 206.8a26 26 0 0 0 17 24.5 28.6 28.6 0 0 0 9.2 1.5 26.2 26.2 0 0 0 26-26.2 26.2 26.2 0 0 1 26-26.2 52.4 52.4 0 0 0 52-46v-2.7A52.4 52.4 0 0 0 155 76l-52-.5a26.2 26.2 0 0 0-20.5 10l-1 1.2a26.2 26.2 0 0 0-4.8 15z" data-name="Deep Blue" class="cls-7"/>
    </g>
    <path id="Text" d="M1373 203.2q-14.8 7-24.8 7-9 0-13.3-5t-5-17.2v-79.7h48V82h-48V36.4h-35V82h-24v26.6h23.2v86q0 24 13 36t34 12q20 0 41-12zM1224 85q-18-10.6-41.2-10.6-19.3 0-34 7.6a59.8 59.8 0 0 0-24 22.3V75.7h-35.6v225.8h35.7v-89a59.5 59.5 0 0 0 24 22.2q14 7.6 34 7.6 23 0 41-10.4a71 71 0 0 0 27-30q9-19 9-44t-10-45a72.5 72.5 0 0 0-27-29zm-4.7 100.8a46.6 46.6 0 0 1-18 19.2 50 50 0 0 1-26 6.8q-22 0-36.2-15t-14-39a59 59 0 0 1 7-27.6 46.8 46.8 0 0 1 18-19 50 50 0 0 1 26-7 49.3 49.3 0 0 1 26 7 48.2 48.2 0 0 1 18 19.2 58 58 0 0 1 7 27.4 60.5 60.5 0 0 1-6 28zm-230-111.4q-47.6 0-62.8 39.8-6-19-20.7-29.4t-37-10.4q-43 0-60 33.3v-32h-35.4V241H809v-81.7q0-22 12.3-36.5t33.6-15q18 0 28 10.6t10 29.6v93h36v-81q0-22 12-36.5t33-15q18 0 28 10.6t11 29v93h36V138q0-29.4-16.5-46.5t-44.5-17zm-292.7 82.8q0 22.3-12.3 36.8t-33 14.8q-18 0-28.4-10.8t-11-29.3v-93h-35v103q0 29.5 16 46.6t44 17q43 0 59-33.5v32.4h36V75.7h-36V157zM513.4 85q-17.8-10.6-41.2-10.6-19.3 0-34 7.6a59.8 59.8 0 0 0-23.8 22.3V75.7h-35.8v225.8h35.8v-89a59.5 59.5 0 0 0 24 22.2q15 7.6 34.5 7.6 23 0 41-10.4a71 71 0 0 0 27-30q10-19 10-44t-10-44a72.5 72.5 0 0 0-28-29zm-4.6 100.8a46.6 46.6 0 0 1-18 19.2 50 50 0 0 1-26 6.8q-22 0-36.3-15t-14-39a59 59 0 0 1 6.3-27.6 46.8 46.8 0 0 1 17.8-19 50 50 0 0 1 26.2-7 49.3 49.3 0 0 1 26 7 48.2 48.2 0 0 1 18 19.2 58 58 0 0 1 6.4 27.4 60.5 60.5 0 0 1-6.4 28z" class="cls-8"/>
</svg>
